images/portal/4262.svg

<?xml version="1.0" standalone="no"?><!DOCTYPE svg PUBLIC "-//W3C//DTD SVG 1.1//EN" "http://www.w3.org/Graphics/SVG/1.1/DTD/svg11.dtd"><svg xmlns:xlink="http://www.w3.org/1999/xlink" version="1.1" class="highcharts-root" style="font-family:arial;font-size:9pt;" xmlns="http://www.w3.org/2000/svg" width="485" height="415"><desc>Created with Highstock 5.0.14</desc><defs><clipPath id="highcharts-7fhwxir-7"><rect x="0" y="0" width="432" height="240" fill="none"></rect></clipPath><clipPath id="highcharts-7fhwxir-8"><rect x="0" y="0" width="432" height="240" fill="none"></rect></clipPath></defs><rect fill="#fbfbfb" class="highcharts-background" x="0" y="0" width="485" height="415" rx="0" ry="0"></rect><rect fill="none" class="highcharts-plot-background" x="43" y="104" width="432" height="240"></rect><g class="highcharts-label" style="cursor:pointer;" transform="translate(10,451)"><text x="0" y="0"><tspan>&gt; Indikator-Details</tspan></text></g><g class="highcharts-pane-group"></g><g class="highcharts-grid highcharts-xaxis-grid "><path fill="none" class="highcharts-grid-line" d="M 128.5 104 L 128.5 344" opacity="1"></path><path fill="none" class="highcharts-grid-line" d="M 215.5 104 L 215.5 344" opacity="1"></path><path fill="none" class="highcharts-grid-line" d="M 301.5 104 L 301.5 344" opacity="1"></path><path fill="none" class="highcharts-grid-line" d="M 388.5 104 L 388.5 344" opacity="1"></path><path fill="none" class="highcharts-grid-line" d="M 474.5 104 L 474.5 344" opacity="1"></path><path fill="none" class="highcharts-grid-line" d="M 42.5 104 L 42.5 344" opacity="1"></path></g><g class="highcharts-grid highcharts-yaxis-grid "><path fill="none" stroke="#e6e6e6" stroke-width="1" class="highcharts-grid-line" d="M 43 344.5 L 475 344.5" opacity="1"></path><path fill="none" stroke="#e6e6e6" stroke-width="1" class="highcharts-grid-line" d="M 43 264.5 L 475 264.5" opacity="1"></path><path fill="none" stroke="#e6e6e6" stroke-width="1" class="highcharts-grid-line" d="M 43 184.5 L 475 184.5" opacity="1"></path><path fill="none" stroke="#e6e6e6" stroke-width="1" class="highcharts-grid-line" d="M 43 103.5 L 475 103.5" opacity="1"></path></g><g class="highcharts-grid highcharts-yaxis-grid "></g><rect fill="none" class="highcharts-plot-border" x="43" y="104" width="432" height="240"></rect><g class="highcharts-axis highcharts-xaxis "><path fill="none" class="highcharts-axis-line" stroke="#ccd6eb" stroke-width="1" d="M 43 344.5 L 475 344.5"></path></g><g class="highcharts-axis highcharts-yaxis "><path fill="none" class="highcharts-axis-line" d="M 43 104 L 43 344"></path></g><g class="highcharts-axis highcharts-yaxis "><path fill="none" class="highcharts-axis-line" d="M 475 104 L 475 344"></path></g><g class="highcharts-series-group"><g class="highcharts-series highcharts-series-0 highcharts-column-series highcharts-color-undefined " transform="translate(43,104) scale(1 1)" clip-path="url(#highcharts-7fhwxir-8)"><rect x="22" y="187" width="42" height="54" fill="#FF8028" class="highcharts-point"></rect><rect x="109" y="36" width="42" height="205" fill="#FF8028" class="highcharts-point"></rect><rect x="195" y="171" width="42" height="70" fill="#FF8028" class="highcharts-point"></rect><rect x="282" y="228" width="42" height="13" fill="#FF8028" class="highcharts-point"></rect><rect x="368" y="201" width="42" height="40" fill="#FF8028" class="highcharts-point"></rect></g><g class="highcharts-markers highcharts-series-0 highcharts-column-series highcharts-color-undefined " transform="translate(43,104) scale(1 1)" clip-path="none"></g></g><text x="10" text-anchor="start" class="highcharts-title" style="color:#000000;font-size:1.1em;font-weight:bold;fill:#000000;" y="20"><tspan>Unbeabsichtigte Freisetzung von gentechnisch veränderten</tspan><tspan dy="16.200000000000003" x="10">Organismen</tspan><title>Unbeabsichtigte Freisetzung von gentechnisch veränderten Organismen</title></text><text x="10" text-anchor="start" class="highcharts-subtitle" style="color:#000000;font-size:0.9em;fill:#000000;" y="55"><tspan>Anzahl Pflanzen</tspan></text><g class="highcharts-legend" transform="translate(10,54)"><rect fill="none" class="highcharts-legend-box" rx="0" ry="0" x="0" y="0" width="304" height="38" visibility="visible"></rect><g><g><g class="highcharts-legend-item highcharts-column-series highcharts-color-undefined highcharts-series-0" transform="translate(12,7)"><text x="21" style="color:#333333;font-size:1em;font-weight:normal;cursor:pointer;fill:#333333;" text-anchor="start" y="15"><tspan>BS: Hafen Kleinhünigen und Bahnhof St. Johann</tspan></text><rect x="2" y="4" width="12" height="12" fill="#FF8028" class="highcharts-point"></rect></g></g></g></g><g class="highcharts-axis-labels highcharts-xaxis-labels "><text x="86.2" style="color:#000000;cursor:default;font-size:0.9em;fill:#000000;" text-anchor="middle" transform="translate(0,0)" y="363" opacity="1"><tspan>2012</tspan></text><text x="172.60000000000002" style="color:#000000;cursor:default;font-size:0.9em;fill:#000000;" text-anchor="middle" transform="translate(0,0)" y="363" opacity="1"><tspan>2013</tspan></text><text x="259" style="color:#000000;cursor:default;font-size:0.9em;fill:#000000;" text-anchor="middle" transform="translate(0,0)" y="363" opacity="1"><tspan>2014</tspan></text><text x="345.40000000000003" style="color:#000000;cursor:default;font-size:0.9em;fill:#000000;" text-anchor="middle" transform="translate(0,0)" y="363" opacity="1"><tspan>2015</tspan></text><text x="431.8" style="color:#000000;cursor:default;font-size:0.9em;fill:#000000;" text-anchor="middle" transform="translate(0,0)" y="363" opacity="1"><tspan>2016</tspan></text></g><g class="highcharts-axis-labels highcharts-yaxis-labels "><text x="28" style="color:#000000;cursor:default;font-size:0.9em;fill:#000000;" text-anchor="end" transform="translate(0,0)" y="349" opacity="1"><tspan>0</tspan></text><text x="28" style="color:#000000;cursor:default;font-size:0.9em;fill:#000000;" text-anchor="end" transform="translate(0,0)" y="269" opacity="1"><tspan>50</tspan></text><text x="28" style="color:#000000;cursor:default;font-size:0.9em;fill:#000000;" text-anchor="end" transform="translate(0,0)" y="189" opacity="1"><tspan>100</tspan></text><text x="28" style="color:#000000;cursor:default;font-size:0.9em;fill:#000000;" text-anchor="end" transform="translate(0,0)" y="109" opacity="1"><tspan>150</tspan></text></g><g class="highcharts-axis-labels highcharts-yaxis-labels "></g><text x="10" class="highcharts-credits" text-anchor="start" style="cursor:default;color:#000000;font-size:0.8em;fill:#000000;" y="400"><tspan>Quelle: Kantonales Laboratorium Basel-Stadt; Sicherheitsinspektorat Basel-Landschaft</tspan></text></svg>

<svg class="highcharts-root" xmlns="http://www.w3.org/2000/svg" viewBox="0 0 485 415" font-family="Arial" font-size="12">
    <defs>
        <clipPath id="a">
            <path fill="none" d="M0 0h432v240H0z"/>
        </clipPath>
    </defs>
    <rect fill="#fbfbfb" class="highcharts-background" width="485" height="415" rx="0" ry="0"/>
    <path fill="none" class="highcharts-plot-background" d="M43 104h432v240H43z"/>
    <text transform="translate(10 451)" class="highcharts-label" cursor="pointer">
        <tspan>&gt; Indikator-Details</tspan>
    </text>
    <g class="highcharts-grid highcharts-xaxis-grid">
        <path fill="none" class="highcharts-grid-line" d="M128.5 104v240m0-240v240m87-240v240m0-240v240m86-240v240m0-240v240m87-240v240m0-240v240m86-240v240m0-240v240m-432-240v240m0-240v240"/>
    </g>
    <g class="highcharts-grid highcharts-yaxis-grid">
        <path fill="none" stroke="#e6e6e6" class="highcharts-grid-line" d="M43 344.5h432m-432-80h432m-432-80h432m-432-81h432"/>
    </g>
    <path fill="none" class="highcharts-plot-border" d="M43 104h432v240H43z"/>
    <g class="highcharts-axis highcharts-xaxis">
        <path fill="none" class="highcharts-axis-line" stroke="#ccd6eb" d="M43 344.5h432"/>
    </g>
    <g class="highcharts-axis highcharts-yaxis">
        <path fill="none" class="highcharts-axis-line" d="M43 104v240"/>
    </g>
    <g class="highcharts-axis highcharts-yaxis">
        <path fill="none" class="highcharts-axis-line" d="M475 104v240"/>
    </g>
    <g class="highcharts-series-group">
        <g class="highcharts-series highcharts-series-0 highcharts-column-series highcharts-color-undefined highcharts-tracker" transform="translate(43 104)" clip-path="url(#a)">
            <path fill="#FF8028" class="highcharts-point" d="M22 187h42v54H22zm87-151h42v205h-42zm86 135h42v70h-42zm87 57h42v13h-42zm86-27h42v40h-42z"/>
        </g>
    </g>
    <text x="10" class="highcharts-title" y="20" color="#000" font-size="1.1em" font-weight="700">
        <tspan>Unbeabsichtigte Freisetzung von gentechnisch veränderten</tspan><tspan dy="16.2" x="10">Organismen</tspan><title>Unbeabsichtigte Freisetzung von gentechnisch veränderten Organismen</title>
    </text>
    <text x="10" class="highcharts-subtitle" y="55" color="#000" font-size=".9em">
        <tspan>Anzahl Pflanzen</tspan>
    </text>
    <g class="highcharts-legend" transform="translate(10 54)">
        <rect fill="none" class="highcharts-legend-box" rx="0" ry="0" width="304" height="38"/>
        <g class="highcharts-legend-item highcharts-column-series highcharts-color-undefined highcharts-series-0">
            <text x="21" y="15" color="#333" font-size="1em" font-weight="400" cursor="pointer" fill="#333" transform="translate(12 7)">
                <tspan>BS: Hafen Kleinhünigen und Bahnhof St. Johann</tspan>
            </text>
            <path fill="#FF8028" class="highcharts-point" d="M14 11h12v12H14z"/>
        </g>
    </g>
    <g class="highcharts-axis-labels highcharts-xaxis-labels" text-anchor="middle" color="#000" cursor="default" font-size=".9em">
        <text x="86.2" y="363">
            <tspan>2012</tspan>
        </text>
        <text x="172.6" y="363">
            <tspan>2013</tspan>
        </text>
        <text x="259" y="363">
            <tspan>2014</tspan>
        </text>
        <text x="345.4" y="363">
            <tspan>2015</tspan>
        </text>
        <text x="431.8" y="363">
            <tspan>2016</tspan>
        </text>
    </g>
    <g class="highcharts-axis-labels highcharts-yaxis-labels" text-anchor="end" color="#000" cursor="default" font-size=".9em">
        <text x="28" y="349">
            <tspan>0</tspan>
        </text>
        <text x="28" y="269">
            <tspan>50</tspan>
        </text>
        <text x="28" y="189">
            <tspan>100</tspan>
        </text>
        <text x="28" y="109">
            <tspan>150</tspan>
        </text>
    </g>
    <text x="10" class="highcharts-credits" y="400" cursor="default" color="#000" font-size=".8em">
        <tspan>Quelle: Kantonales Laboratorium Basel-Stadt; Sicherheitsinspektorat Basel-Landschaft</tspan>
    </text>
</svg>
